X:334
T:Muir Mackenzie's Favourite
R:Strathspey
Z:John Chambers
Z:Chords by Robin Shaylor, August 2005
M:C
L:1/8
K:D
|: f>e | \
"D" d2 A>G "Bm" F<D DE/F/ | "Em" G>FE>D "A7" C<A, B>c | "D"  d>e d>B A>F"G" G>B  | "A7" A<F E>G "D" F<D  f>e |!
"D" d2 A>G "Bm" F<D DE/F/ | "Em" G>FE>D "A7" C<A, B>c | "D"  d>e d>B A>F"G" G>B  | "A7" A<F E>G "D" F<D  f>g |!
"D" a>ba>g "Bm" f>e f<d   | "Em" g>fe>d "A7" c>B c<A  | "D"  a>ba>g  "D"f>e f<d | "G" g>e "A7" a>f "D" ~d2 f>g |!
"D" a>ba>g "Bm" f<d e>f   | "Em" g>fe>d "A7" c<A B>c  | "Bm" d>e f<d "G" e>f g<e | "D" f<a "A" c>e "D"   d2    :|
